icon-themes/breeze_svg/svx/res/marker-circ11-3.svg

<svg viewBox="0 0 11 11" xmlns="http://www.w3.org/2000/svg"><path d="m5.5 1c-2.485281 0-4.5 2.01472-4.5 4.5s2.014719 4.5 4.5 4.5 4.5-2.01472 4.5-4.5-2.014719-4.5-4.5-4.5z" fill="#27ae60" opacity=".8"/><path d="m5.5 0c-3.037566 0-5.5 2.46243-5.5 5.5s2.462434 5.5 5.5 5.5 5.5-2.46243 5.5-5.5-2.462434-5.5-5.5-5.5zm0 1c2.485281 0 4.5 2.01472 4.5 4.5s-2.014719 4.5-4.5 4.5-4.5-2.01472-4.5-4.5 2.014719-4.5 4.5-4.5z" fill="#fff" opacity=".8"/></svg>

<svg viewBox="0 0 11 11" xmlns="http://www.w3.org/2000/svg">
  <path
     d="M 5.5 1 C 3.014719 1 1 3.01472 1 5.5 C 1 7.98528 3.014719 10 5.5 10 C 7.985281 10 10 7.98528 10 5.5 C 10 3.01472 7.985281 1 5.5 1 z "
     style="fill:#27ae60;opacity:0.8" />
  <path
     d="M 5.5 0 C 2.462434 0 -5.9211895e-16 2.46243 0 5.5 C 0 8.53757 2.462434 11 5.5 11 C 8.537566 11 11 8.53757 11 5.5 C 11 2.46243 8.537566 0 5.5 0 z M 5.5 1 C 7.985281 1 10 3.01472 10 5.5 C 10 7.98528 7.985281 10 5.5 10 C 3.014719 10 1 7.98528 1 5.5 C 1 3.01472 3.014719 1 5.5 1 z "
     style="fill:#fff;opacity:0.8" />
</svg>
